X: 26918
T: Miser's Purse
R: reel
M: 4/4
K: Amajor
|:eA (3AAA cAec|dB (3BBB aefa|eA (3AAA cAec|1 dfBd cAaf:|2 dfBd cA A2||
agaf ecAc|Bbba gefg|agaf ecAc|dfBd cA A2|
agaf ecAc|B2 ba gefg|aefb afec|dfBd cAaf||

